build/images/icon-original.svg

<svg width="44" height="44" viewBox="0 0 44 44" fill="none" xmlns="http://www.w3.org/2000/svg">
<g clip-path="url(#clip0)">
<path d="M21.9999 7.10162C13.7849 7.10162 7.10156 13.785 7.10156 22C7.10156 30.215 13.7849 36.8984 21.9999 36.8984C30.215 36.8984 36.8983 30.215 36.8983 22C36.8983 13.785 30.215 7.10162 21.9999 7.10162ZM21.9999 35.1796C14.7326 35.1796 8.82031 29.2673 8.82031 22C8.82031 14.7327 14.7326 8.82037 21.9999 8.82037C29.2673 8.82037 35.1796 14.7327 35.1796 22C35.1796 29.2673 29.2672 35.1796 21.9999 35.1796Z" fill="#020288"/>
<path d="M42.8258 24.9544C43.3762 24.0988 44 23.1291 44 22C44 20.871 43.3762 19.9013 42.8258 19.0457C42.4574 18.473 42.1095 17.9321 41.9978 17.4416C41.8787 16.9185 41.9584 16.2609 42.0427 15.5647C42.1688 14.5232 42.2992 13.4463 41.825 12.4649C41.3425 11.4662 40.3666 10.8678 39.5055 10.3398C38.9154 9.97814 38.3581 9.63636 38.034 9.23091C37.7064 8.82125 37.4948 8.19983 37.2708 7.54198C36.9467 6.58988 36.5794 5.51085 35.7173 4.82352C34.8598 4.1398 33.7278 4.02121 32.729 3.91653C32.0339 3.84375 31.3773 3.775 30.8993 3.54468C30.4377 3.32228 29.9833 2.85933 29.5023 2.36923C28.7921 1.64546 27.987 0.825105 26.895 0.577175C25.8437 0.338612 24.8285 0.702816 23.8466 1.05525C23.179 1.29475 22.5483 1.52111 22 1.52111C21.4517 1.52111 20.821 1.29475 20.1534 1.05516C19.1716 0.702816 18.1564 0.338527 17.105 0.577089C16.013 0.824933 15.2079 1.64529 14.4977 2.36914C14.0167 2.85925 13.5624 3.32219 13.1007 3.5446C12.6228 3.77482 11.9663 3.84357 11.2711 3.91645C10.2723 4.02112 9.14023 4.13971 8.28274 4.82343C7.4207 5.51076 7.05332 6.58979 6.72925 7.54181C6.5053 8.19974 6.29372 8.82116 5.96613 9.23082C5.64197 9.63628 5.08458 9.97796 4.49453 10.3398C3.63352 10.8678 2.65762 11.4661 2.17508 12.4648C1.70087 13.4463 1.83124 14.5232 1.95731 15.5647C2.04162 16.2609 2.12128 16.9185 2.00217 17.4416C1.89054 17.9321 1.54258 18.473 1.17416 19.0457C0.62382 19.9013 0 20.871 0 22C0 23.1291 0.62382 24.0988 1.17416 24.9543C1.54258 25.5271 1.89054 26.068 2.00217 26.5584C2.12128 27.0815 2.04162 27.7391 1.95731 28.4354C1.83124 29.4768 1.70079 30.5537 2.17499 31.5351C2.65753 32.5338 3.63344 33.1323 4.49453 33.6602C5.08458 34.022 5.64188 34.3637 5.96604 34.7691C6.29363 35.1788 6.50521 35.8002 6.72916 36.4581C7.05323 37.4102 7.42062 38.4892 8.28266 39.1765C9.14023 39.8602 10.2723 39.9788 11.271 40.0835C11.9661 40.1563 12.6227 40.225 13.1007 40.4553C13.5623 40.6778 14.0167 41.1407 14.4977 41.6308C15.2079 42.3546 16.013 43.1749 17.105 43.4229C18.1565 43.6615 19.1716 43.2973 20.1534 42.9448C20.8211 42.7052 21.4517 42.4788 22 42.4788C22.5483 42.4788 23.179 42.7052 23.8466 42.9448C24.6092 43.2185 25.3918 43.4993 26.196 43.4993C26.4272 43.4993 26.6602 43.4761 26.895 43.4229C27.987 43.175 28.7921 42.3547 29.5023 41.6309C29.9833 41.1407 30.4376 40.6778 30.8993 40.4554C31.3772 40.2251 32.0338 40.1564 32.7289 40.0836C33.7277 39.9789 34.8597 39.8603 35.7173 39.1766C36.5793 38.4893 36.9466 37.4102 37.2708 36.4582C37.4947 35.8003 37.7063 35.1789 38.0339 34.7692C38.358 34.3638 38.9154 34.0221 39.5055 33.6603C40.3665 33.1323 41.3424 32.5339 41.8249 31.5352C42.2991 30.5537 42.1688 29.4768 42.0427 28.4354C41.9584 27.7391 41.8787 27.0815 41.9978 26.5584C42.1094 26.068 42.4574 25.5271 42.8258 24.9544ZM41.3804 24.0244C40.9478 24.6968 40.5006 25.3921 40.322 26.1768C40.1365 26.9914 40.2381 27.8305 40.3364 28.642C40.4371 29.474 40.5322 30.2599 40.2774 30.7875C40.0141 31.3321 39.3307 31.7513 38.607 32.195C37.917 32.618 37.2035 33.0555 36.6915 33.6957C36.1761 34.3402 35.9055 35.1352 35.6437 35.9042C35.3715 36.7038 35.1143 37.459 34.6457 37.8326C34.181 38.2032 33.3886 38.2861 32.5498 38.374C31.739 38.4589 30.9007 38.5468 30.1533 38.9068C29.4211 39.2595 28.8387 39.853 28.2755 40.4269C27.6781 41.0356 27.1139 41.6105 26.5145 41.7466C25.9521 41.8741 25.2113 41.6085 24.427 41.327C23.6503 41.0482 22.8472 40.76 21.9998 40.76C21.1525 40.76 20.3493 41.0482 19.5726 41.327C18.7883 41.6085 18.0476 41.8743 17.4852 41.7466C16.8858 41.6105 16.3215 41.0356 15.7242 40.4269C15.1609 39.853 14.5785 39.2595 13.8463 38.9068C13.0989 38.5468 12.2606 38.459 11.4499 38.374C10.611 38.2862 9.81862 38.2031 9.35395 37.8326C8.88534 37.459 8.62821 36.7038 8.35605 35.9042C8.09428 35.1353 7.82358 34.3402 7.30821 33.6957C6.79628 33.0555 6.08283 32.6181 5.39275 32.195C4.66907 31.7513 3.98552 31.3322 3.72238 30.7875C3.46749 30.2599 3.56262 29.474 3.66334 28.642C3.76166 27.8305 3.86323 26.9914 3.67778 26.1768C3.49912 25.3921 3.0519 24.6967 2.61937 24.0244C2.15634 23.3043 1.71875 22.6239 1.71875 22C1.71875 21.376 2.15634 20.6957 2.61963 19.9755C3.05216 19.3031 3.49937 18.6079 3.67804 17.8231C3.86349 17.0085 3.76191 16.1694 3.6636 15.358C3.56288 14.5259 3.46775 13.74 3.72264 13.2125C3.98587 12.6678 4.66933 12.2487 5.39301 11.805C6.083 11.3819 6.79654 10.9444 7.30847 10.3043C7.82384 9.65982 8.09454 8.86464 8.3563 8.09576C8.62855 7.2962 8.88568 6.54098 9.3543 6.16732C9.81905 5.79676 10.6114 5.71383 11.4503 5.62592C12.261 5.54101 13.0993 5.45318 13.8468 5.09319C14.579 4.7405 15.1613 4.14702 15.7245 3.57313C16.3219 2.96443 16.8861 2.38951 17.4855 2.25339C18.0477 2.12585 18.7887 2.39157 19.573 2.67302C20.3495 2.95163 21.1527 3.23986 22 3.23986C22.8473 3.23986 23.6505 2.95163 24.4272 2.67285C25.2115 2.39149 25.9521 2.12568 26.5146 2.25321C27.1141 2.38925 27.6783 2.96426 28.2757 3.57296C28.8389 4.14685 29.4213 4.74033 30.1535 5.09302C30.9009 5.45301 31.7392 5.54084 32.5499 5.62583C33.3889 5.71374 34.1812 5.79676 34.646 6.16724C35.1146 6.54089 35.3717 7.29611 35.6439 8.09576C35.9056 8.86464 36.1763 9.65974 36.6917 10.3043C37.2036 10.9444 37.9171 11.3819 38.6072 11.805C39.3308 12.2487 40.0144 12.6677 40.2775 13.2125C40.5324 13.74 40.4373 14.5259 40.3366 15.358C40.2383 16.1694 40.1367 17.0086 40.3221 17.8231C40.5008 18.6079 40.948 19.3031 41.3805 19.9755C41.8437 20.6957 42.2812 21.376 42.2812 22C42.2812 22.6239 41.8437 23.3043 41.3804 24.0244Z" fill="#020288"/>
<path d="M22.001 27.8125L17.0886 29.5593L17.232 24.3476L14.0527 20.2156L19.0536 18.7414L22.001 14.4407L24.9484 18.7414L29.9493 20.2156L26.77 24.3476L26.9134 29.5593L22.001 27.8125Z" fill="#EA587B"/>
</g>
<defs>
<clipPath id="clip0">
<rect width="44" height="44" fill="white"/>
</clipPath>
</defs>
</svg>

<svg width="44" height="44" fill="none" xmlns="http://www.w3.org/2000/svg"><g clip-path="url(#clip0)"><path d="M22 7.102C13.785 7.102 7.102 13.785 7.102 22S13.785 36.898 22 36.898 36.898 30.215 36.898 22 30.215 7.102 22 7.102zm0 28.078c-7.267 0-13.18-5.913-13.18-13.18 0-7.267 5.913-13.18 13.18-13.18 7.267 0 13.18 5.913 13.18 13.18 0 7.267-5.913 13.18-13.18 13.18z" fill="#020288"/><path d="M42.826 24.954C43.376 24.1 44 23.13 44 22c0-1.129-.624-2.099-1.174-2.954-.369-.573-.717-1.114-.828-1.604-.12-.523-.04-1.181.045-1.877.126-1.042.256-2.119-.218-3.1-.483-.999-1.458-1.597-2.32-2.125-.59-.362-1.147-.704-1.471-1.11-.328-.409-.54-1.03-.763-1.688-.324-.952-.692-2.031-1.554-2.718-.857-.684-1.99-.803-2.988-.907-.695-.073-1.352-.142-1.83-.372-.461-.223-.916-.686-1.397-1.176-.71-.724-1.515-1.544-2.607-1.792-1.051-.238-2.067.126-3.048.478-.668.24-1.299.466-1.847.466s-1.179-.226-1.847-.466C19.172.703 18.156.34 17.105.577c-1.092.248-1.897 1.068-2.607 1.792-.481.49-.936.953-1.397 1.176-.478.23-1.135.299-1.83.371-.999.105-2.13.224-2.988.907-.862.688-1.23 1.767-1.554 2.719-.224.658-.435 1.28-.763 1.689-.324.405-.881.747-1.471 1.109-.861.528-1.837 1.126-2.32 2.125-.474.981-.344 2.058-.218 3.1.085.696.164 1.354.045 1.877-.111.49-.46 1.031-.828 1.604C.624 19.9 0 20.87 0 22c0 1.13.624 2.099 1.174 2.954.369.573.717 1.114.828 1.604.12.523.04 1.181-.045 1.877-.126 1.042-.256 2.119.218 3.1.483.999 1.458 1.597 2.32 2.125.59.362 1.147.704 1.471 1.11.328.409.54 1.03.763 1.688.324.952.692 2.031 1.554 2.718.857.684 1.99.803 2.988.907.695.073 1.352.142 1.83.372.461.223.916.686 1.397 1.176.71.724 1.515 1.544 2.607 1.792 1.052.238 2.067-.126 3.048-.478.668-.24 1.299-.466 1.847-.466s1.179.226 1.847.466c.762.273 1.545.554 2.349.554.231 0 .464-.023.699-.076 1.092-.248 1.897-1.068 2.607-1.792.481-.49.936-.953 1.397-1.176.478-.23 1.135-.299 1.83-.371.999-.105 2.13-.224 2.988-.907.862-.688 1.23-1.767 1.554-2.719.224-.658.435-1.28.763-1.689.324-.405.881-.747 1.471-1.109.861-.528 1.837-1.126 2.32-2.125.474-.981.344-2.058.218-3.1-.085-.696-.164-1.354-.045-1.877.111-.49.46-1.03.828-1.604zm-1.446-.93c-.432.673-.88 1.368-1.058 2.153-.186.814-.084 1.654.014 2.465.101.832.196 1.618-.059 2.146-.263.544-.946.963-1.67 1.407-.69.423-1.404.86-1.916 1.5-.515.645-.785 1.44-1.047 2.21-.273.799-.53 1.554-.998 1.928-.465.37-1.257.453-2.096.541-.811.085-1.65.173-2.397.533-.732.353-1.314.946-1.877 1.52-.598.609-1.162 1.184-1.761 1.32-.563.127-1.304-.139-2.088-.42-.777-.279-1.58-.567-2.427-.567-.848 0-1.65.288-2.427.567-.785.282-1.525.547-2.088.42-.6-.136-1.163-.711-1.76-1.32-.564-.574-1.146-1.167-1.879-1.52-.747-.36-1.585-.448-2.396-.533-.839-.088-1.631-.17-2.096-.541-.469-.374-.726-1.13-.998-1.929-.262-.769-.532-1.564-1.048-2.208-.512-.64-1.225-1.078-1.915-1.501-.724-.444-1.407-.863-1.67-1.407-.256-.528-.16-1.314-.06-2.146.099-.811.2-1.65.015-2.465-.179-.785-.626-1.48-1.059-2.153-.463-.72-.9-1.4-.9-2.024 0-.624.437-1.304.9-2.024.433-.673.88-1.368 1.059-2.153.185-.814.084-1.654-.014-2.465-.101-.832-.196-1.618.059-2.146.263-.544.946-.963 1.67-1.407.69-.423 1.404-.86 1.915-1.5.516-.645.787-1.44 1.048-2.21.273-.799.53-1.554.998-1.928.465-.37 1.257-.453 2.096-.541.811-.085 1.65-.173 2.397-.533.732-.353 1.314-.946 1.878-1.52.597-.609 1.161-1.183 1.76-1.32.563-.127 1.304.139 2.088.42.776.279 1.58.567 2.427.567s1.65-.288 2.427-.567c.785-.282 1.525-.547 2.088-.42.6.136 1.163.711 1.76 1.32.564.574 1.146 1.167 1.879 1.52.747.36 1.585.448 2.396.533.839.088 1.631.17 2.096.541.469.374.726 1.13.998 1.929.262.769.532 1.564 1.048 2.208.512.64 1.225 1.078 1.915 1.501.724.444 1.407.863 1.67 1.408.255.527.16 1.313.06 2.145-.099.811-.2 1.65-.015 2.465.179.785.626 1.48 1.058 2.152.464.72.901 1.401.901 2.025 0 .624-.437 1.304-.9 2.024z" fill="#020288"/><path d="M22.001 27.813l-4.912 1.746.143-5.211-3.18-4.132 5.002-1.475 2.947-4.3 2.947 4.3 5.001 1.475-3.179 4.132.143 5.211-4.912-1.747z" fill="#EA587B"/></g><defs><clipPath id="clip0"><path fill="#fff" d="M0 0h44v44H0z"/></clipPath></defs></svg>
